src/svg/circuit-board.svg

<svg height="16" width="14" xmlns="http://www.w3.org/2000/svg" viewBox="0 0 14 16">
  <path d="M3 5c0-0.55 0.45-1 1-1s1 0.45 1 1-0.45 1-1 1-1-0.45-1-1z m8 0c0-0.55-0.45-1-1-1s-1 0.45-1 1 0.45 1 1 1 1-0.45 1-1z m0 6c0-0.55-0.45-1-1-1s-1 0.45-1 1 0.45 1 1 1 1-0.45 1-1zM13 1H5v2.17c0.36 0.19 0.64 0.47 0.83 0.83h2.34c0.42-0.78 1.33-1.28 2.34-1.05 0.75 0.19 1.36 0.8 1.53 1.55 0.31 1.38-0.72 2.59-2.05 2.59-0.8 0-1.48-0.44-1.83-1.09H5.83c-0.42 0.8-1.33 1.28-2.34 1.03-0.73-0.17-1.34-0.78-1.52-1.52-0.25-1.02 0.23-1.92 1.03-2.34V1H1C0.45 1 0 1.45 0 2v12c0 0.55 0.45 1 1 1l5-5h2.17c0.42-0.78 1.33-1.28 2.34-1.05 0.75 0.19 1.36 0.8 1.53 1.55 0.31 1.38-0.72 2.59-2.05 2.59-0.8 0-1.48-0.44-1.83-1.09h-1.17L4 15h9c0.55 0 1-0.45 1-1V2c0-0.55-0.45-1-1-1z" />
</svg>

<?xml version="1.0" encoding="UTF-8" standalone="no"?>
<svg width="14px" height="16px" viewBox="0 0 14 16" version="1.1" xmlns="http://www.w3.org/2000/svg" xmlns:xlink="http://www.w3.org/1999/xlink">
    <!-- Generator: Sketch 3.7.1 (28215) - http://www.bohemiancoding.com/sketch -->
    <title>circuit-board</title>
    <desc>Created with Sketch.</desc>
    <defs></defs>
    <g id="Octicons" stroke="none" stroke-width="1" fill="none" fill-rule="evenodd">
        <g id="circuit-board" fill="#000000">
            <path d="M3,5 C3,4.45 3.45,4 4,4 C4.55,4 5,4.45 5,5 C5,5.55 4.55,6 4,6 C3.45,6 3,5.55 3,5 L3,5 Z M11,5 C11,4.45 10.55,4 10,4 C9.45,4 9,4.45 9,5 C9,5.55 9.45,6 10,6 C10.55,6 11,5.55 11,5 L11,5 Z M11,11 C11,10.45 10.55,10 10,10 C9.45,10 9,10.45 9,11 C9,11.55 9.45,12 10,12 C10.55,12 11,11.55 11,11 L11,11 Z M13,1 L5,1 L5,3.17 C5.36,3.36 5.64,3.64 5.83,4 L8.17,4 C8.59,3.22 9.5,2.72 10.51,2.95 C11.26,3.14 11.87,3.75 12.04,4.5 C12.35,5.88 11.32,7.09 9.99,7.09 C9.19,7.09 8.51,6.65 8.16,6 L5.83,6 C5.41,6.8 4.5,7.28 3.49,7.03 C2.76,6.86 2.15,6.25 1.97,5.51 C1.72,4.49 2.2,3.59 3,3.17 L3,1 L1,1 C0.45,1 0,1.45 0,2 L0,14 C0,14.55 0.45,15 1,15 L6,10 L8.17,10 C8.59,9.22 9.5,8.72 10.51,8.95 C11.26,9.14 11.87,9.75 12.04,10.5 C12.35,11.88 11.32,13.09 9.99,13.09 C9.19,13.09 8.51,12.65 8.16,12 L6.99,12 L4,15 L13,15 C13.55,15 14,14.55 14,14 L14,2 C14,1.45 13.55,1 13,1 L13,1 Z" id="Shape"></path>
        </g>
    </g>
</svg>
